!!!OTL: 1388. Das Pfeifchen. / [Marschlied der Soldaten.]
!!!ARE: Europa, Mitteleuropa, Deutschland, Hessen, Giessen
!!!SCT: E1388
!!!TXL: @@DE
!!!YEM: Copyright 1995, estate of Helmut Schaffrath.
**kern	**text
*ICvox	*
*M4/4	*
*met(c)	*
*k[f#c#]	*
*D:	*
!LO:TX:a:t=Jm Tritt.	!
!LO:TX:a:t=Aus Oberheſſen 1880. (Vom Reg. 116 in Gießen geſungen). Ebenſo aus Straßb. 1889. Sachſen 1892.	!
{8d	Pfeif-
8f#	-chen,
=1	=1
4a	wer
4a	hat
4a	dich
8f#L	er-
8gJ	.
=2	=2
2a	-fun-
4f#}	-den,
{8b/	wem
8a	ver-
=3	=3
4.g	-dankſt
8f#	du
(4g	dein
8b/)	.
8a	Be-
=4	=4
4f#	-ſtehn?
4r	(Eins!
4r}	Ʒwei!)
{8a	Jſt
8a	ſein
=5	=5
4b	Na-
4b	-me
4cc#	längſt
4cc#	ver-
=6	=6
2dd	-ſchwunden?
4a}	.
{8cc#/	ſag
8a	wa-
=7	=7
4g	-rum,
8cc#	ſag
8b	wa-
8a	-rum
8a	iſt
8g	das
8a	ge-
=8	=8
4f#	-ſchehn?
4r	Eins!
4r}	Ʒwei!
{8a	Jſt
8a	ſein
=9	=9
4b	Na-
4b	-me
4cc#	längſt
4cc#	ver-
=10	=10
2dd	-ſchwunden?
4a}	.
{8cc#/	ſag
8a	wa-
=11	=11
4g	-rum,
8cc#	ſag
8b	wa-
8a	-rum
8a	iſt
8g	das
8a	ge-
=12	=12
4f#	-ſchehn?
4r	Eins!
4r}	Ʒwei!
!LO:TX:a:t=Refrain.	!
{8dd	O
8dd	wie
=13	=13
8cc#	ſchön,
8cc#	wie
8b	ſchön,
8b	wie
8a	ſchön,
8a	wie
8g	ſchön,
8g	wie
=14	=14
8b/	ſchön
8b/	biſt
8.a	du,
16a	Ma-
4a}	-rie!
{8.f#	läßt
16f#	mir
=15	=15
8a	kei-
8a	-ne
8.g	Ruh,
16g	Ma-
4g	-rie,
8g	tanʒt
8g	auf
=16	=16
8b/	Gum-
8a	-mi-
8.a	-ſchuh,
16a	Ma-
4a}	-rie!
{8dd	O
8dd	wie
=17	=17
8cc#	ſchön,
8cc#	wie
8b	ſchön,
8b	wie
8a	ſchön,
8a	wie
8g	ſchön,
8g	wie
=18	=18
8b/	ſchön
8b/	biſt
8.a	du
16a	Ma-
4a}	-rie!
{(>12a	ſpann-
12a	-e-
12a)	-mal
=19	=19
4b	los,
!LO:TUP:a	!
12bL	ſpann-
12b	e-
12bJ	-mal
4cc#	los,
!LO:TUP:a	!
12cc#L	ſpann-
12cc#	-e-
12cc#J	-mal
=20	=20
4dd	los!
4r	.
4r}	.
==	==
!!!AGN: Staende -, Soldaten -, Scherz - Lied
!!!ONB: ESAC (Essen Associative Code) Database: ERK3
!!!AMT: simple quadruple
!!!AIN: vox
!!!EED: Helmut Schaffrath
!!!EEV: 1.0
!!!RDF**kern: >= above
!!!GTL: Staendelieder (Berufslieder). 1. Soldaten- und Kriegslieder. Soldatenlieder seit dem 30jaehr. Kriege.
!!!URL-scan: https://rosdok.uni-rostock.de/mcrviewer/recordIdentifier/rosdok_ppn745177999/iview2/phys_0260.iview2?x=-101.51655504651899&y=1153.836404459551&scale=0.5870222003877487&rotation=0&layout=singlePageLayout
!!!ENC: Anna Maria Matuszewska
!!!EEV: 2024/12/30
*-	*-
